<?xml version="1.0" encoding="UTF-8"?>
<map version="1.10" tiledversion="1.12.1" orientation="orthogonal" renderorder="right-down" width="10" height="10" tilewidth="16" tileheight="16" infinite="0" nextlayerid="3" nextobjectid="1">
 <tileset firstgid="1" name="lawn-area" tilewidth="16" tileheight="16" tilecount="132" columns="12">
  <image source="kenny-tiny-town-tilemap-packed.png" width="192" height="176"/>
 </tileset>
 <layer id="1" name="Grass" width="10" height="10">
  <data encoding="csv">
0,0,0,0,0,0,0,0,0,0,
0,0,0,0,0,0,0,0,0,0,
0,0,0,0,0,0,0,0,0,0,
0,0,0,0,0,0,0,0,0,0,
0,0,0,0,0,0,0,0,0,0,
0,0,0,0,0,0,0,0,0,0,
1,2,3,3,2,1,2,1,3,2,
1,2,3,2,3,2,2,3,3,1,
3,2,3,1,1,3,2,3,2,2,
1,3,1,1,2,3,1,2,3,2
</data>
 </layer>
 <layer id="2" name="Fences" width="10" height="10">
  <data encoding="csv">
0,0,0,0,0,0,0,0,0,0,
0,0,0,0,0,0,0,0,0,0,
0,0,0,0,0,0,0,0,0,0,
0,0,0,0,0,0,0,0,0,0,
0,0,0,0,0,0,0,0,0,0,
0,0,0,0,0,0,0,0,0,0,
81,82,82,82,82,82,82,82,82,83,
0,0,0,0,0,0,0,0,0,0,
0,0,0,0,0,0,0,0,0,0,
0,0,0,0,0,0,0,0,0,132
</data>
 </layer>
</map>
